X: 6803
T: Charles O'Connor
R: jig
M: 6/8
K: Cmajor
|:c2 G c2 G|AGF EGG|A/B/cc dBG|cgg g2 f|
ec/d/e AcA|d/c/B/c/d GBG|cBA GEG|c3 c3:|
|:G2 C E/F/GE|AF/G/A GE/F/G|C2 G E/F/GC|
FDd TB2 G|e2 e ege|ege ecA|B/c/dd dgd|
dgd dBG|cBA GEC|EGG e2 d|{c} B2 A GEG|c3 c3||

